Simply black circles/symbolic/status/dialog-error-symbolic.svg

<?xml version="1.0" encoding="UTF-8" standalone="no"?>
<!-- Created with Inkscape (http://www.inkscape.org/) -->

<svg
   xmlns:dc="http://purl.org/dc/elements/1.1/"
   xmlns:cc="http://creativecommons.org/ns#"
   xmlns:rdf="http://www.w3.org/1999/02/22-rdf-syntax-ns#"
   xmlns:svg="http://www.w3.org/2000/svg"
   xmlns="http://www.w3.org/2000/svg"
   xmlns:xlink="http://www.w3.org/1999/xlink"
   xmlns:sodipodi="http://sodipodi.sourceforge.net/DTD/sodipodi-0.dtd"
   xmlns:inkscape="http://www.inkscape.org/namespaces/inkscape"
   id="svg3334"
   width="24"
   height="24"
   version="1.0"
   sodipodi:docname="error-symbolic.svg"
   inkscape:version="0.92.3 (2405546, 2018-03-11)">
  <metadata
     id="metadata40">
    <rdf:RDF>
      <cc:Work
         rdf:about="">
        <dc:format>image/svg+xml</dc:format>
        <dc:type
           rdf:resource="http://purl.org/dc/dcmitype/StillImage" />
        <dc:title></dc:title>
      </cc:Work>
    </rdf:RDF>
  </metadata>
  <sodipodi:namedview
     pagecolor="#ffffff"
     bordercolor="#666666"
     borderopacity="1"
     objecttolerance="10"
     gridtolerance="10"
     guidetolerance="10"
     inkscape:pageopacity="0"
     inkscape:pageshadow="2"
     inkscape:window-width="1366"
     inkscape:window-height="719"
     id="namedview38"
     showgrid="false"
     inkscape:zoom="11.083334"
     inkscape:cx="-25.443607"
     inkscape:cy="11.278196"
     inkscape:window-x="0"
     inkscape:window-y="25"
     inkscape:window-maximized="1"
     inkscape:current-layer="svg3334"
     inkscape:snap-global="true"
     showguides="true"
     inkscape:guide-bbox="true" />
  <defs
     id="defs3336">
    <linearGradient
       id="linearGradient2877"
       x1="25.058001"
       x2="25.058001"
       y1="47.028"
       y2="39.999001"
       gradientUnits="userSpaceOnUse">
      <stop
         id="stop3704"
         style="stop-opacity:0"
         offset="0" />
      <stop
         id="stop3710"
         offset=".5" />
      <stop
         id="stop3706"
         style="stop-opacity:0"
         offset="1" />
    </linearGradient>
    <radialGradient
       id="radialGradient2875"
       cx="4.993"
       cy="43.5"
       r="2.5"
       gradientTransform="matrix(2.0038,0,0,1.4,-20.012,-104.4)"
       gradientUnits="userSpaceOnUse"
       xlink:href="#linearGradient3688" />
    <linearGradient
       id="linearGradient3688">
      <stop
         id="stop3690"
         offset="0" />
      <stop
         id="stop3692"
         style="stop-opacity:0"
         offset="1" />
    </linearGradient>
    <radialGradient
       id="radialGradient2873"
       cx="4.993"
       cy="43.5"
       r="2.5"
       gradientTransform="matrix(2.0038,0,0,1.4,27.988,-17.4)"
       gradientUnits="userSpaceOnUse"
       xlink:href="#linearGradient3688" />
    <linearGradient
       id="linearGradient2865"
       x1="24"
       x2="24"
       y1="44"
       y2="3.8989999"
       gradientTransform="translate(0,0.96744)"
       gradientUnits="userSpaceOnUse">
      <stop
         id="stop2492"
         style="stop-color:#791235"
         offset="0" />
      <stop
         id="stop2494"
         style="stop-color:#dd3b27"
         offset="1" />
    </linearGradient>
    <radialGradient
       id="radialGradient2863"
       cx="12.011"
       cy="10.424"
       r="20"
       gradientTransform="matrix(5.6342e-8,1.6801,-2.4235,1.0381e-8,44.478,-5.9267)"
       gradientUnits="userSpaceOnUse">
      <stop
         id="stop3244"
         style="stop-color:#f89b7e"
         offset="0" />
      <stop
         id="stop3246"
         style="stop-color:#e35d4f"
         offset=".26238" />
      <stop
         id="stop3248"
         style="stop-color:#c6262e"
         offset=".66094" />
      <stop
         id="stop3250"
         style="stop-color:#690b2c"
         offset="1" />
    </radialGradient>
    <linearGradient
       id="linearGradient2855"
       x1="24"
       x2="24"
       y1="5"
       y2="43"
       gradientTransform="translate(0,0.96744)"
       gradientUnits="userSpaceOnUse">
      <stop
         id="stop3310-1-4"
         style="stop-color:#fff"
         offset="0" />
      <stop
         id="stop3312-5-3"
         style="stop-color:#fff;stop-opacity:0"
         offset="1" />
    </linearGradient>
  </defs>
  <path
     style="fill:#808080;fill-opacity:1;stroke-width:0.26165536"
     d="M 12,0.15820312 A 11.84323,11.84323 0 0 0 0.15625,12.001953 11.84323,11.84323 0 0 0 12,23.841797 11.84323,11.84323 0 0 0 23.84375,12.001953 11.84323,11.84323 0 0 0 12,0.15820312 Z m -0.0332,1.75976568 a 10.181907,10.181907 0 0 1 3.560547,0.65625 L 12,4.1953125 8.095703,2.6914062 A 10.181907,10.181907 0 0 1 11.966797,1.9179688 Z M 15.835938,2.6875 a 10.181907,10.181907 0 0 1 5.402343,5.2363281 L 17.460938,6.4589844 Z M 7.839844,2.8066406 6.431641,6.6503906 2.523438,8.3105469 A 10.181907,10.181907 0 0 1 7.839844,2.8066406 Z M 8.136719,7.21875 c 0.214658,0 0.428247,0.084073 0.591797,0.2519531 L 12,10.828125 15.271484,7.4707031 c 0.3271,-0.3357603 0.858451,-0.3357603 1.185547,0 0.327097,0.3357592 0.327097,0.8810367 0,1.2167969 l -3.271484,3.357422 3.271484,3.357422 c 0.327097,0.335762 0.327097,0.882987 0,1.21875 -0.163549,0.167878 -0.368868,0.251953 -0.59375,0.251953 -0.224877,0 -0.428248,-0.08407 -0.591797,-0.251953 L 12,13.261719 8.728516,16.621094 c -0.163549,0.167878 -0.366917,0.251953 -0.591797,0.251953 -0.22488,0 -0.430202,-0.08407 -0.59375,-0.251953 -0.327098,-0.335763 -0.327098,-0.882988 0,-1.21875 L 10.814453,12.044922 7.542969,8.6875 C 7.215871,8.3517398 7.215871,7.8064623 7.542969,7.4707031 7.706517,7.3028229 7.922061,7.21875 8.136719,7.21875 Z M 21.330078,8.125 a 10.181907,10.181907 0 0 1 0.81836,3.976562 10.181907,10.181907 0 0 1 -0.6875,3.650391 L 19.814453,11.925781 Z M 2.494141,8.3867188 4.185547,12.316406 2.648438,16.177734 A 10.181907,10.181907 0 0 1 1.783203,12.101562 10.181907,10.181907 0 0 1 2.494141,8.3867188 Z m 18.882812,7.5917972 a 10.181907,10.181907 0 0 1 -5.179687,5.371093 l 1.451172,-3.726562 z M 2.703125,16.298828 6.539062,17.783203 8.15625,21.539062 A 10.181907,10.181907 0 0 1 2.703125,16.298828 Z m 9.546875,3.707031 3.582031,1.507813 a 10.181907,10.181907 0 0 1 -3.865234,0.771484 10.181907,10.181907 0 0 1 -3.46875,-0.623047 z"
     id="path838"
     inkscape:connector-curvature="0" />
</svg>

<svg xmlns="http://www.w3.org/2000/svg" width="24" height="24" version="1"><defs><linearGradient id="a"><stop offset="0"/><stop offset="1" stop-opacity="0"/></linearGradient></defs><path d="M12 .158A11.843 11.843 0 0 0 .156 12.002 11.843 11.843 0 0 0 12 23.842a11.843 11.843 0 0 0 11.844-11.84A11.843 11.843 0 0 0 12 .158zm-.033 1.76a10.182 10.182 0 0 1 3.56.656L12 4.195 8.096 2.691a10.182 10.182 0 0 1 3.87-.773zm3.869.77a10.182 10.182 0 0 1 5.402 5.236l-3.777-1.465zm-7.996.119L6.432 6.65 2.523 8.31A10.182 10.182 0 0 1 7.84 2.808zm.297 4.412c.214 0 .428.084.592.252L12 10.828l3.271-3.357a.824.824 0 0 1 1.186 0 .877.877 0 0 1 0 1.216l-3.271 3.358 3.271 3.357a.88.88 0 0 1 0 1.22.81.81 0 0 1-.594.251.806.806 0 0 1-.592-.252L12 13.261l-3.271 3.36a.806.806 0 0 1-.592.252.81.81 0 0 1-.594-.252.88.88 0 0 1 0-1.219l3.271-3.357-3.271-3.357a.877.877 0 0 1 0-1.217.827.827 0 0 1 .594-.252zm13.193.906a10.182 10.182 0 0 1 .818 3.977 10.182 10.182 0 0 1-.687 3.65l-1.647-3.826zm-18.836.262l1.692 3.93-1.538 3.86a10.182 10.182 0 0 1-.865-4.075 10.182 10.182 0 0 1 .711-3.715zm18.883 7.592a10.182 10.182 0 0 1-5.18 5.37l1.451-3.726zm-18.674.32l3.836 1.484 1.617 3.756a10.182 10.182 0 0 1-5.453-5.24zm9.547 3.707l3.582 1.508a10.182 10.182 0 0 1-3.865.771 10.182 10.182 0 0 1-3.469-.623z" fill="gray"/></svg>
